X:1
T: Strathdown
C:William Marshall
R:Strathspey
Q: 128
K:D
M:4/4
L:1/16
|:F2|DEFG A2F2 DDD2 B4|Ad3 A3F G3E EF3|DEFG A2F2 DDD2 B4|Ad3 A3G F2D2 D2F2|
DEFG A2F2 DDD2 B4|Ad3 A3F G3E EF3|DEFG A2F2 DDD2 B4|Ad3 A3G F2D2 D2g2|
f3e de3 ddd2 f4|de3 f3d e3E Eg3|f3e de3 ddd2 f4|Bd3 A3G F2D2 D2g2|
f3e de3 ddd2 f4|de3 f3d e3E Eg3|f3b e3f d3e c3d|Bd3 A3G F2D2 D2:|
